X:1
T:Title
%%score { 1 | ( 2 3 ) }
L:1/8
Q:1/4=100
M:6/8
K:G
V:1 treble nm="Grand Piano"
V:2 bass 
V:3 bass 
V:1
 [GB]3 [FA][GB][Ac] | d2 e d3 | B3 .[^CGB]2 [CG] | [DFA]6 | [DGB]3 [FA][GB][Ac] | d2 e d3 | %6
w: T.~E.~Perkins * * *||||||
 B2 G [EA]2 [CFA] | [B,G]6 | [FA]3 [FA][GB][Ac] | [Ac]2 [GB] [FA]3 | B3 Bcd | d2 [Ac] [GB]3 | %12
w: ||||||
 [Ec]3 cBA | B2 A G2 E | D2 G A2 A | [B,G]6 |] %16
w: ||||
V:2
 [G,D]3 [D,D]2 [D,D] | [G,B,G]2 [G,CG] [G,B,G]3 | [G,DG]3 z A[K:bass]E, | D,6 | G,3 [D,D]2 [D,D] | %5
 [G,B,G]2 [G,CG] [G,B,G]3 | [G,D]3 z3 | G,,6 | [D,D]3 [D,D]2 [D,D] | [F,D]2 [G,D] [D,D]3 | %10
 [G,DG]3 D-[A,DF][B,DG] | [A,DF]2[K:bass] [F,D] [G,D]3 | z3 .[E,C]3 | %13
 [G,D]2 [D,F,C] [E,G,B,]2 [C,G,C] | .[G,B,]3 z3 | [G,,G,]6 |] %16
V:3
 x6 | x6 | z3 .E,3[K:bass] | x6 | x6 | x6 | z2 B,, [C,G,]2 D, | x6 | x6 | x6 | z3 .[G,G]3 | %11
 x2[K:bass] x4 | [C,C]3 G,-[D,G,D][D,F,D] | x6 | D,2- [D,B,D] [D,F,C]2 [D,F,C] | x6 |] %16

